!!!COM: John Williams
!!!OTL: Poe
!!!GAW: Star Wars: Episode 7
!!!ODT: 2015
!!!OCL: Frank Lehman
!!!ENC: Claire Arthur
!!!ENC2: John McNamara
**kern	**harte	**harm	**altharm	**pedal	**cadence	**text
*clefG2	*	*	*	*	*	*
*k[f#]	*k[f#]	*k[f#]	*	*	*	*
*e:	*e:	*e:	*	*	*	*
*M3/4	*M3/4	*M3/4	*	*	*	*
=1	=1	=1	=1	=1	=1	=1
*MM145  *   *   *   *   *   *
2.e	E:min	i	.	.	.	.
=2	=2	=2	=2	=2	=2	=2
4.f#	D	VII	.	.	.	.
4.d	.	.	.	.	.	.
=3	=3	=3	=3	=3	=3	=3
2.b	E:min	i	.	.	.	.
=4	=4	=4	=4	=4	=4	=4
4.a	A	IV	.	.	.	.
4.e	.	.	.	.	.	.
=5	=5	=5	=5	=5	=5	=5
4.B	E:min	i	.	.	.	.
4.b	.	.	.	.	.	.
=6	=6	=6	=6	=6	=6	=6
4.cc#	A	IV	.	.	.	.
4.a	.	.	.	.	.	.
=7	=7	=7	=7	=7	=7	=7
2.ee	C	VI	.	.	.	.
=8	=8	=8	=8	=8	=8	=8
2.a	D	VII	.	.	//	.
=9	=9	=9	=9	=9	=9	=9
4.cc	F/5	-IIc=IVc/C	.	C ped:	.	}**Pivot Modulation
4.a	.	.	.	.	.	.
=10	=10	=10	=10	=10	=10	=10
4.b	G/4	V	.	.	.	.
4.dd	.	.	.	.	.	.
=11	=11	=11	=11	=11	=11	=11
*k[b-e-a-]	*k[b-e-a-]	*k[b-e-a-]	*	*	*
*c:	*c:	*c:	*	*	*
4.ee-	C:min	i	.	.	.	.
4.cc	.	.	.	.	.	.
=12	=12	=12	=12	=12	=12	=12
4.ffn	F	IV	.	.	.	.
4.cc	.	.	.	.	.	.
=13	=13	=13	=13	=13	=13	=13
4.gg	C:min	i	.	.	.	.
4.ee-	.	.	.	.	.	.
=14	=14	=14	=14	=14	=14	=14
4.aa	F	IV	.	.	.	.
4.ffn	.	.	.	.	.	.
=15	=15	=15	=15	=15	=15	=15
*k[]	*k[]	*k[]	*	*	*
*a:	*a:	*a:	*	*	*
4.ee	A:min	vi=i/A	.	.	.	}**Pivot Modulation
16%3aL	.	.	.	A ped:	.	.
16%3bJ	.	i	.	.	.	.
=16	=16	=16	=16	=16	=16	=16
4.cc	.	i	.	.	.	.
4.a	.	.	.	.	.	.
=17	=17	=17	=17	=17	=17	=17
2.dd	Bb/7	-II	.	.	||	.
=	=	=	=	=	=	=
*-	*-	*-	*-	*-	*-	*-
